src/topics/icons/wufoo.svg

<svg height="256" preserveAspectRatio="xMidYMid" viewBox="0 0 256 256" width="256" xmlns="http://www.w3.org/2000/svg"><path d="m.06 131.957001c2.09101102 68.861221 58.5717898 124.042999 127.94 124.042999 70.692 0 128-57.308 128-128s-57.308-128-128-128c-69.3682102 0-125.84898898 55.1817785-127.94 124.042999z" fill="#d46a59"/><path d="m227.187 128c0 54.779-44.408 99.187-99.187 99.187-54.78 0-99.187-44.408-99.187-99.187s44.407-99.187 99.187-99.187c54.779 0 99.187 44.408 99.187 99.187z" fill="#d04f41"/><path d="m85.738 206.945-61.388-121.739 41.817-13.259 32.51 72.797 4.462-78.151 36.335-7.013 33.53 71.522 3.013-78.57 37.401-7.358-10.709 139.092-39.14 7.777-33.784-69.992-4.717 77.641z" fill="#fff"/></svg>

<?xml version="1.0" encoding="UTF-8" standalone="no"?>
<svg width="256px" height="256px" viewBox="0 0 256 256" version="1.1" xmlns="http://www.w3.org/2000/svg" xmlns:xlink="http://www.w3.org/1999/xlink" preserveAspectRatio="xMidYMid">
    <g>
        <path d="M0.06,131.957001 C2.15101102,200.818222 58.6317898,256 128,256 C198.692,256 256,198.692 256,128 C256,57.308 198.692,0 128,0 C58.6317898,0 2.15101102,55.1817785 0.06,124.042999 L0.06,131.957001 L0.06,131.957001 Z" fill="#D46A59"></path>
        <path d="M227.187,128 C227.187,182.779 182.779,227.187 128,227.187 C73.22,227.187 28.813,182.779 28.813,128 C28.813,73.221 73.22,28.813 128,28.813 C182.779,28.813 227.187,73.221 227.187,128 L227.187,128 Z" fill="#D04F41"></path>
        <path id="path-1" d="M85.738,206.945 L24.35,85.206 L66.167,71.947 L98.677,144.744 L103.139,66.593 L139.474,59.58 L173.004,131.102 L176.017,52.532 L213.418,45.174 L202.709,184.266 L163.569,192.043 L129.785,122.051 L125.068,199.692 L85.738,206.945 L85.738,206.945 Z" fill="#ffffff"></path>
    </g>
</svg>
